flaticon/education/notepad.svg

<svg xmlns="http://www.w3.org/2000/svg" width="32" height="32" viewBox="0 0 24 24">
    <path d="M 20.398438 0 L 3.601562 0 C 2.921875 0 2.398438 0.519531 2.398438 1.199219 L 2.398438 22.800781 C 2.398438 23.480469 2.921875 24 3.601562 24 L 20.398438 24 C 21.078125 24 21.601562 23.480469 21.601562 22.800781 L 21.601562 1.199219 C 21.601562 0.519531 21.078125 0 20.398438 0 Z M 18.640625 4.800781 L 16.800781 4.800781 L 16.800781 2.960938 Z M 16.398438 5.601562 L 19.199219 5.601562 L 19.199219 21.601562 L 4.800781 21.601562 L 4.800781 2.398438 L 8.800781 2.398438 L 8.800781 2.800781 C 8.800781 3.480469 9.320312 4 10 4 L 10.398438 4 C 10.761719 4.480469 11.320312 4.800781 12 4.800781 C 12.640625 4.800781 13.199219 4.480469 13.601562 4 L 14 4 C 14.679688 4 15.199219 3.480469 15.199219 2.800781 L 15.199219 2.398438 L 16 2.398438 L 16 5.199219 C 16 5.441406 16.160156 5.601562 16.398438 5.601562 Z M 11.199219 0.800781 L 12.800781 0.800781 L 12.800781 1.601562 C 12.800781 1.839844 12.601562 2 12.398438 2 L 11.601562 2 C 11.359375 2 11.199219 1.800781 11.199219 1.601562 Z M 10.398438 0.800781 L 10.398438 1.601562 C 10.398438 2.28125 10.921875 2.800781 11.601562 2.800781 L 12.398438 2.800781 C 13.078125 2.800781 13.601562 2.28125 13.601562 1.601562 L 13.601562 0.800781 L 14.398438 0.800781 L 14.398438 2.800781 C 14.398438 3.039062 14.199219 3.199219 14 3.199219 L 13.359375 3.199219 C 13.238281 3.199219 13.121094 3.28125 13 3.398438 C 12.800781 3.761719 12.398438 4 12 4 C 11.558594 4 11.199219 3.761719 11 3.398438 C 10.921875 3.28125 10.800781 3.199219 10.640625 3.199219 L 10 3.199219 C 9.761719 3.199219 9.601562 3 9.601562 2.800781 L 9.601562 0.800781 Z M 20.800781 22.800781 C 20.800781 23.039062 20.640625 23.199219 20.398438 23.199219 L 3.601562 23.199219 C 3.359375 23.199219 3.199219 23.039062 3.199219 22.800781 L 3.199219 1.199219 C 3.199219 1 3.359375 0.800781 3.601562 0.800781 L 8.800781 0.800781 L 8.800781 1.601562 L 4.398438 1.601562 C 4.160156 1.601562 4 1.761719 4 2 L 4 22 C 4 22.238281 4.160156 22.398438 4.398438 22.398438 L 19.601562 22.398438 C 19.839844 22.398438 20 22.238281 20 22 L 20 5.222656 C 20.003906 5.175781 20 5.132812 19.984375 5.089844 C 19.96875 5.035156 19.941406 4.988281 19.902344 4.945312 C 19.894531 4.9375 19.886719 4.929688 19.878906 4.921875 L 16.679688 1.71875 C 16.671875 1.710938 16.664062 1.703125 16.65625 1.699219 C 16.613281 1.65625 16.566406 1.628906 16.511719 1.613281 C 16.46875 1.601562 16.425781 1.597656 16.378906 1.601562 L 15.199219 1.601562 L 15.199219 0.800781 L 20.398438 0.800781 C 20.640625 0.800781 20.800781 0.960938 20.800781 1.199219 Z M 20.800781 22.800781"/>
    <path d="M9.601562 11.199219L14.398438 11.199219C14.640625 11.199219 14.800781 11.039062 14.800781 10.800781 14.800781 10.558594 14.640625 10.398438 14.398438 10.398438L9.601562 10.398438C9.359375 10.398438 9.199219 10.558594 9.199219 10.800781 9.199219 11.039062 9.359375 11.199219 9.601562 11.199219zM8 13.199219C7.761719 13.199219 7.601562 13.359375 7.601562 13.601562 7.601562 13.839844 7.761719 14 8 14L16 14C16.238281 14 16.398438 13.839844 16.398438 13.601562 16.398438 13.359375 16.238281 13.199219 16 13.199219zM13.398438 16.839844C12.523438 17.292969 12.195312 18.183594 12.070312 19.109375 11.882812 18.902344 11.695312 18.695312 11.480469 18.519531 11.078125 18.199219 10.519531 18.761719 10.921875 19.078125 11.359375 19.441406 11.679688 19.921875 12.121094 20.28125 12.398438 20.519531 12.800781 20.359375 12.800781 20 12.839844 19.121094 12.921875 18 13.800781 17.558594 14.28125 17.320312 13.839844 16.640625 13.398438 16.839844zM15.078125 18.199219C14.921875 17.71875 14.238281 18.121094 14.441406 18.601562 14.640625 19.039062 15.078125 19.441406 15.558594 19.558594 15.800781 19.601562 16.039062 19.601562 16.238281 19.519531 16.519531 19.398438 17 18.960938 17.238281 19.398438 17.480469 19.839844 18.160156 19.441406 17.921875 19 17.679688 18.601562 17.199219 18.28125 16.71875 18.398438 16.398438 18.480469 16.160156 18.761719 15.839844 18.800781 15.519531 18.839844 15.199219 18.441406 15.078125 18.199219zM15.078125 18.199219"/>
</svg>

<svg xmlns="http://www.w3.org/2000/svg" width="32" height="32" viewBox="0 0 24 24">
    <path d="M20.398 0H3.602c-.68 0-1.204.52-1.204 1.2v21.6c0 .68.524 1.2 1.204 1.2h16.796c.68 0 1.204-.52 1.204-1.2V1.2c0-.68-.524-1.2-1.204-1.2zm-1.757 4.8H16.8V2.96zm-2.243.802H19.2v16H4.801V2.398h4v.403C8.8 3.48 9.32 4 10 4h.398c.364.48.922.8 1.602.8.64 0 1.2-.32 1.602-.8H14c.68 0 1.2-.52 1.2-1.2v-.402h.8V5.2c0 .242.16.403.398.403zM11.2.8h1.602v.8a.4.4 0 0 1-.403.399h-.796a.4.4 0 0 1-.403-.398zm-.8 0v.8c0 .68.523 1.2 1.203 1.2h.796c.68 0 1.204-.52 1.204-1.2v-.8h.796v2a.4.4 0 0 1-.398.398h-.64c-.122 0-.239.082-.36.2-.2.363-.602.601-1 .601-.441 0-.8-.238-1-.602a.422.422 0 0 0-.36-.199H10a.4.4 0 0 1-.398-.398v-2zm10.402 22c0 .238-.16.398-.403.398H3.602c-.243 0-.403-.16-.403-.398V1.199a.4.4 0 0 1 .403-.398H8.8v.8H4.398C4.16 1.602 4 1.762 4 2v20c0 .238.16.398.398.398h15.204c.238 0 .398-.16.398-.398V5.223a.304.304 0 0 0-.016-.133.357.357 0 0 0-.105-.168l-3.2-3.203c-.007-.008-.015-.016-.023-.02a.325.325 0 0 0-.144-.086c-.043-.011-.086-.015-.133-.011h-1.18V.8h5.2c.242 0 .402.16.402.398zm0 0"/>
    <path d="M9.602 11.2h4.796c.243 0 .403-.16.403-.4 0-.241-.16-.402-.403-.402H9.602c-.243 0-.403.16-.403.403 0 .238.16.398.403.398zm0 0M8 13.2c-.238 0-.398.16-.398.402 0 .238.16.398.398.398h8c.238 0 .398-.16.398-.398 0-.243-.16-.403-.398-.403zm0 0M13.398 16.84c-.875.453-1.203 1.344-1.328 2.27-.187-.208-.375-.415-.59-.59-.402-.32-.96.242-.558.558.437.363.758.844 1.2 1.203.276.239.679.078.679-.281.039-.879.12-2 1-2.441.48-.239.039-.918-.403-.72zm0 0M15.078 18.2c-.156-.481-.84-.079-.637.402.2.437.637.84 1.118.957.242.043.48.043.68-.04.28-.12.761-.558 1-.12.241.44.921.042.683-.399-.242-.398-.723-.719-1.203-.602-.32.082-.559.364-.88.403-.32.039-.64-.36-.76-.602zm0 0"/>
</svg>
